X:1
T:Title
%%score { ( 1 4 ) | ( 2 3 ) }
L:1/8
Q:1/4=120
M:3/4
K:G
V:1 treble nm="Grand Piano"
V:4 treble 
V:2 bass 
V:3 bass 
V:1
 B4 A2 | G4 D2 | E2 G2 [Ec]2 | c4 B2 | d4 e2 | d4 B2 | B2 z2 [A,^CG]2 | A4 z2 | B4 A2 | G4 D2 | %10
w: John~R.~Sweney *||||||||||
 E2 G2 [Ec]2 | c4 B2 | d4 e2 | d2 B2 [^CG]2 | [DGB]4 [CFA]2 | [B,G]4 z2 | [Fc]4 B2 | A4 D2 | %18
w: ||||||||
 [DG]4 [DA]2 | [DB]4 z2 | d4 B2 | e2 d2 B2 | G4 [GB]2 | [GB]2 [FA]4 | B4 A2 | G4 D2 | E2 G2 [Ec]2 | %27
w: |||||||||
 c4 B2 | d4 e2 | d2 B2 [^CG]2 | [DGB]4 [CFA]2 |[M:7/4] [B,G]4 z2 z2 z2 z4 |] %32
w: |||||
V:2
 [G,D]4 [G,CD]2 | [G,B,D]4 [B,,G,]2 | [G,C]2 z2 z2 | [G,E]4 [G,D]2 | [G,B,G]4 [G,CG]2 | %5
 [G,B,G]4[K:bass] [G,D]2 | z2 A2 A,,2 | [D,F,D]4 z2 | [G,D]4 [G,CD]2 | [G,B,D]4 [B,,G,]2 | %10
 [G,C]2 [CE]2 [C,G,]2 | [G,E]4 [G,D]2 | [G,B,G]4 [G,CG]2 | [G,G]2- [G,DG]2[K:bass] E,2 | D,4 D,2 | %15
 G,4 z2 | [D,A,]4 [D,G,D]2 | [D,F,D]4 [C,F,]2 | [B,,G,]4 [A,,F,]2 | [G,,G,]4 z2 | %20
 [G,B,G]4 [B,DG]2 | [G,G]2- [G,B,G]2 [G,D]2 | [E,B,E]4 [E,^C]2 | [D,D]2 [D,D]4 | [G,D]4 [G,CD]2 | %25
 [G,B,D]4 [B,,G,]2 | [G,C]2 z2 z2 | [G,E]4 [G,D]2 | [G,B,G]4 [G,CG]2 | %29
 [G,G]2- [G,DG]2[K:bass] E,2 | D,4 D,2 |[M:7/4] G,4 z2 z2 z2 z4 |] %32
V:3
 x6 | x6 | C,2- [C,CE]2 [C,G,]2 | x6 | x6 | x4[K:bass] x2 | [A,,E,]4 z2 | x6 | x6 | x6 | C,4 z2 | %11
 x6 | x6 | B,2 z2[K:bass] z2 | x6 | x6 | x6 | x6 | x6 | x6 | x6 | C2 z2 z2 | x6 | x6 | x6 | x6 | %26
 C,2- [C,CE]2 [C,G,]2 | x6 | x6 | B,2 z2[K:bass] z2 | x6 |[M:7/4] x14 |] %32
V:4
 x6 | x6 | x6 | x6 | x6 | x6 | ^C4 z2 | x6 | x6 | x6 | x6 | x6 | x6 | x6 | x6 | x6 | x6 | x6 | x6 | %19
 x6 | x6 | x6 | x6 | x6 | x6 | x6 | x6 | x6 | x6 | x6 | x6 |[M:7/4] x14 |] %32

